X:104
T:Little Rock Get Away
C:Jethro Burns
N:Submitted by Jim Nikora
L:1/8
Q:1/4=200
M:4/4
K:C
z8 |: e"C"G ce "E7"d^G Bd | "Am"cE Ac "C7"_BC EB | "F"AC FA "A7"G^C EG | "Dm"FA, DF "D#dim"^D^F Ac | 
|1 E"C"F ^FG "A7"cB AG | "D"FE DC "G"B,G ^FG | "C"EG ^FG "C#dim"=FG ^FG | "Dm"EF G^G "G"AB cd :|2 EF "C"^FG "A7"cB AG | 
"D"FE DC "G"B,G, A,B, | "C"CE GE FG Bd | "C"[c2E2] E2 [c4E4_B,4] |] "F"Ac AF DF Ac | 
"F#dim"^dc A^F ^DF Ac | "C"EF ^FG [c2E2] [B2^D2] | "C7"[_B2D2] [BD][BD] [B4D4] | 
"F"Ac AF DF Ac | "F#dim"^dc A^F ^DF AF | "C"EG AG ^FA c^d | "G"dB G^F =FG Ac | 


